X:3
T:Constant Billy - Sherborne
C:John Glaister
S:http://www.youtube.com/watch?v=Xgwn6EC2VTk 2012-9-18
N:The dance needs 4 Bs.
M:6/8
L:1/8
K:Ador
"A"|: A2e cAc | B2d GAB | c2A A2G | A3  A3 :|
"B"|: agf edc | gfe dcB | cde gfe | dcB A3 :|
